!!!OTL@@DE: Reiterlied
!!!COM: Zahn, Christian Jacob
!!!ODT: 1797
!!!OMD: Marschm&auml;ssig
!!!LYR: Schiller, Friedrich von
!!!LDT: 1797
!!!OCL: Erk, Ludwig
!!!GCO: Deutscher Liederschatz, Band 1
**kern	**kern	**kern
*staff3	*staff2	*staff1
*Ipiano	*Ipiano	*Ivox
*>[A,A,B,B]	*>[A,A,B,B]	*>[A,A,B,B]
*>norep[A,B]	*>norep[A,B]	*>norep[A,B]
*>A	*>A	*>A
*clefF4	*clefG2	*clefG2
*k[b-e-]	*k[b-e-]	*k[b-e-]
*B-:	*B-:	*B-:
*met(C)	*met(C)	*met(C)
*M4/4	*M4/4	*M4/4
*MM110	*MM110	*MM110
4F\	4f/	4f/
=1	=1	=1
4BB-\ 4B-\	4d/ 4f/ 4b-/	4b-\
8B-\L	8b-/L	8b-/
8B-\J	8b-/J	8b-/
(8B-\L	(8b-/L	8b-/L
8F\)	8f/)	8f/J
8D\	8d/	8d/
8BB-\J	8B-/J	8B-/
=2	=2	=2
4FF/ 4F/	4A/ 4c/ 4f/	4f/
8F\L	8f/L	4f/
8F\J	8f/J	.
4F\	4f/	4f/
8D\ (8B-\L	(8f/ 8b-/L	8b-\L
8F\ 8c\J)	8a/) 8cc/J	8cc\J
=3	=3	=3
4B-\ 4d\	4b-\ 4dd\	4dd\
8F\ 8c\L	8f/ 8a/ 8cc/L	8cc\
8B-\ 8d\J	8f/ 8b-/ 8dd/J	8dd\
4A\ 4c\	4f/ 4cc/ 4ee-/	4ee-\
4B-\ 4d\	8f/ 8b-/ 8dd/L	8dd\
.	8f/ 8b-/ 8dd/J	8dd\
=4	=4	=4
4F\	4f/ 4b-/ 4dd/	4dd\
4FF/ 4F/	4f/ 4a/ 4cc/	4cc\
4r	4r	4r
=:|!|:	=:|!|:	=:|!|:
*>B	*>B	*>B
*^	*	*
(8A/L	4F\	(8f/L	8f/L
8c/J)	.	8a/J)	8a/J
*v	*v	*	*
=5	=5	=5
4F\	4f/ 4a/ 4cc/	4cc\
4r	8f/ 8a/ 8cc/L	4cc\
.	8f/ 8a/ 8cc/J	.
4FF/ 4F/	4f/ 4a/ 4cc/	4cc\
4r	8d/ 8f/ 8b-/L	8b-\
.	8f/ 8a/ 8cc/J	8cc\
=6	=6	=6
4BB-\ 4B-\	4f/ 4b-/ 4dd/	4dd\
4FF/ 4F/	4f/ 4a/ 4cc/	4cc\
4BB-\ 4B-\	4d/ 4f/ 4b-/	4b-\
*^	*	*
(8F/L	8D\L	8f/ 8b-/L	8b-\
8B-/J)	8BB-\J	8f/ 8dd/J	8dd\
=7	=7	=7	=7
4A/	4F\	4f\ 4ff\	4ff\
*v	*v	*	*
8FF/ 8F/L	8f/L	8f/
8FF/ 8F/J	8f/J	8f/
4FF/ 4F/	4f/	4f/
8F\ 8c\ 8e-\L	8f/ 8g/L	8g\L
8F\ 8c\ 8e-\J	8f/ 8a/J	8a\J
=8	=8	=8
*	*^	*
4B-\ 4d\	(8b-/L	4f\	(8b-\L
.	8dd/J)	.	8dd\J)
*^	*	*	*
(8e-/L	4F\	(8cc/L	4f\	(8cc\L
8c/J	.	8a/J	.	8a\J)
4ryy	4B-\ 4d\)	4b-/)	4f\	4b-\
*v	*v	*	*	*
*	*v	*v	*
==:|!	==:|!	==:|!
*-	*-	*-
!!!ENC: Craig Stuart Sapp
!!!END: 2004/06/27/
!!!EFL: 165/651
